X: 468
M: 9/8
L: 1/8
K: G
V: 1
|:\
|:\
b3 d2b afd | gfg efg fed | bgb afa geg | fdf e^ce d3 |\
V: 2 clef=bass middle=d
|:\
g3 g3 g3 | g3 g3 g3 | d3 d3 d3 | d3 d3 d3 |\
g3 g3 g3 | g3 g3 g3 | d3 d3 d3 | d3 d3 g3 :|
|:\
g3 g3 f3 | e3 e3 d3 | g3 f3 e3 | d3 a3 d3 |\
g3 g3 g3 | g3 g3 g3 | d3 d3 d3 | d3 d3 g3 |]

